X: 15270
T: Girl Who Broke My Heart, The
R: reel
M: 4/4
K: Amixolydian
ed|:cAGA E~D3|EAAG ABcd|ef ge dBAG|EGGF ~G2ed|
cAGA E~D3|EAAG ABcd|ef g/f/e dBAG|1 EAAG A2 ed:|2 EAAG A3 E||
~A2 ce aecA|~G2 Bd gdBG|~A2 ce aece|dcde dBGB|
~A2 ce aecA|~G2 Bd gdBG|ABce dBAG|EAAG ~A3 G|
~A2 B/c/e aecA|~G2 B/c/d gdBG|~A2 B/c/e aece|dcde dBGB|
~A2 B/c/e aecA|~G2 B/c/d gdBG|~A2 B/c/e dBAG|EAAG A2||

